Yaru++/categories/32/preferences-mail.svg

<svg height="32" width="32" xmlns="http://www.w3.org/2000/svg" xmlns:xlink="http://www.w3.org/1999/xlink"><linearGradient id="a" gradientTransform="matrix(0 -1.04758 .95458104 0 263.81519 444.36752)" gradientUnits="userSpaceOnUse" x1="344" x2="344" y1="65.144272" y2="102.85715"><stop offset="0" stop-color="#fff"/><stop offset=".125" stop-color="#fff" stop-opacity=".098039"/><stop offset=".92500001" stop-color="#fff" stop-opacity=".098039"/><stop offset="1" stop-color="#fff" stop-opacity=".498039"/></linearGradient><clipPath id="b"><path d="m335.73108 62c-8.82418 0-9.77365.90635-9.7304 9.74838v12.25162 12.25162c-.0433 8.84203.90622 9.74838 9.7304 9.74838h16.53919c8.82418 0 9.7304-.90625 9.7304-9.74838v-12.25162-12.25162c0-8.84213-.90622-9.74838-9.7304-9.74838z"/></clipPath><linearGradient id="c" gradientTransform="matrix(0 1 -1 0 164.000491 -320.500489)" gradientUnits="userSpaceOnUse" x1="319.2178" x2="355.70792" y1="170.97945" y2="121.71233"><stop offset="0" stop-color="#80a3fa"/><stop offset="1" stop-color="#a2bcfe"/></linearGradient><path d="m31.000001 10.69336c0-1.4209597-.0308-2.5488297-.19141-3.5058597-.16064-.95703-.4726-1.79146-1.09179-2.41211s-1.45612-.93647-2.41407-1.0957c-.95795-.15924-2.08705-.18666-3.51171-.17969h-7.791021-7.79688c-1.42131-.007-2.5495.0207-3.50585.17969-.95796.15923-1.79488.47505-2.41407 1.0957s-.93115 1.45508-1.09179 2.41211c-.16065.95703-.19141 2.0849-.19141 3.5058597v11.61523c0 1.42097.0307 2.54669.19141 3.50196.16075.95527.47425 1.78779 1.09375 2.40625.6195.61845 1.45363.93134 2.41015 1.09179.95653.16046 2.08403.19141 3.50781.19141h7.79688 7.796881c1.42378 0 2.55128-.031 3.50781-.19141.95653-.16045 1.79065-.47334 2.41015-1.09179.61951-.61846.933-1.45098 1.09375-2.40625.16076-.95527.19141-2.08099.19141-3.50196z" opacity=".1"/><path d="m30.500501 9.57459c0-5.5617497-.58409-6.6036997-6.28227-6.5744697h-8.217651-8.21781c-5.69818-.0293-6.28227 1.01272-6.28227 6.5744697v11.85044c0 5.56037.58403 6.57447 6.28227 6.57447h8.21781 8.217651c5.69824 0 6.28227-1.0141 6.28227-6.57447z" fill="url(#c)"/><path d="m7.52113 5.5000103c-.9829-.0124-1.64338.20847-1.98234.61522-.35591.42369-.5383 1.11884-.5383 2.08487v17.2994097h22.000001v-17.2994097c0-.96603-.18239-1.66118-.5383-2.08487-.33895-.40675-1.00958-.61522-1.98234-.61522h-1.64055-11.404761z" fill="#faf8f6"/><path d="m1.50049 12.48584v8.93945c0 5.56037.58496 6.57422 6.2832 6.57422h8.2168 8.216801c5.69824 0 6.2832-1.01385 6.2832-6.57422v-8.93945l-14.500001 6.79687z" fill="#a2bcfe" fill-rule="evenodd"/><path d="m30.500491 12.48389-28.560551 13.33007c.64348 1.76198 2.19254 2.18555 5.84375 2.18555h8.2168 8.216801c5.69824 0 6.2832-1.01385 6.2832-6.57422z" fill="#fff" fill-rule="evenodd" opacity=".2"/><path d="m9.00049 9.4995103v.9999997h14.000001v-.9999997zm0 1.9999997v1h7v-1z" fill="#80a3fa" fill-opacity=".996078" opacity=".5"/><path d="m1.50049 20.83935v.58594c0 2.1868.0946 3.6629.55078 4.6582l.94922.41602v-5z" fill="#87a6f3"/><path d="m30.500491 20.83935-1.5.66016v5l.94922-.41602c.45623-.9953.55078-2.4714.55078-4.6582z" fill="#87a6f3"/><path d="m1.00049 13.62061 2 .8789v5l-2-.8789z" fill="#e93549"/><path d="m31.000491 13.62061-2 .8789v5l2-.8789z" fill="#e93549"/><g fill="none"><path d="m30.500501 9.57459c0-5.5617497-.58409-6.6036997-6.28227-6.5744697h-8.217651-8.21781c-5.69818-.0293-6.28227 1.01272-6.28227 6.5744697v11.85044c0 5.56037.58403 6.57447 6.28227 6.57447h8.21781 8.217651c5.69824 0 6.28227-1.0141 6.28227-6.57447z" opacity=".4" stroke="#000"/><path clip-path="url(#b)" d="m335.73108 62c-8.82418 0-9.77365.90635-9.7304 9.74838v12.25162 12.25162c-.0433 8.84203.90622 9.74838 9.7304 9.74838h16.53919c8.82418 0 9.7304-.90625 9.7304-9.74838v-12.25162-12.25162c0-8.84213-.90622-9.74838-9.7304-9.74838z" opacity=".7" stroke="url(#a)" stroke-width="3.070655" transform="matrix(0 .66664182 -.63636364 0 69.455041 -213.82528)"/></g></svg>

<?xml version="1.0" encoding="UTF-8" standalone="no"?>
<svg
   xmlns:dc="http://purl.org/dc/elements/1.1/"
   xmlns:cc="http://creativecommons.org/ns#"
   xmlns:rdf="http://www.w3.org/1999/02/22-rdf-syntax-ns#"
   xmlns:svg="http://www.w3.org/2000/svg"
   xmlns="http://www.w3.org/2000/svg"
   xmlns:xlink="http://www.w3.org/1999/xlink"
   xmlns:sodipodi="http://sodipodi.sourceforge.net/DTD/sodipodi-0.dtd"
   xmlns:inkscape="http://www.inkscape.org/namespaces/inkscape"
   width="32"
   height="32"
   version="1.1"
   id="svg8"
   sodipodi:docname="4.svg"
   inkscape:version="0.92.4 (5da689c313, 2019-01-14)">
  <metadata
     id="metadata14">
    <rdf:RDF>
      <cc:Work
         rdf:about="">
        <dc:format>image/svg+xml</dc:format>
        <dc:type
           rdf:resource="http://purl.org/dc/dcmitype/StillImage" />
        <dc:title></dc:title>
      </cc:Work>
    </rdf:RDF>
  </metadata>
  <defs
     id="defs12">
    <clipPath
       clipPathUnits="userSpaceOnUse"
       id="clipPath959">
      <path
         style="color:#000000;display:inline;overflow:visible;visibility:visible;opacity:1;fill:#46a926;fill-opacity:1;fill-rule:nonzero;stroke:none;stroke-width:2;stroke-miterlimit:4;stroke-dasharray:none;stroke-opacity:1;marker:none;enable-background:accumulate"
         d="m 330.1929,133.99999 c -5.61538,0 -6.21958,0.57678 -6.19206,6.20352 v 7.79648 7.79648 c -0.0276,5.62673 0.57668,6.20351 6.19206,6.20351 h 11.615 c 5.6154,0 6.19208,-0.5767 6.19208,-6.20351 v -7.79648 -7.79648 c 0,-5.6268 -0.5767,-6.20352 -6.19208,-6.20352 z"
         id="path961"
         inkscape:connector-curvature="0"
         sodipodi:nodetypes="scccssscsss" />
    </clipPath>
    <clipPath
       clipPathUnits="userSpaceOnUse"
       id="clipPath959-3">
      <path
         style="color:#000000;display:inline;overflow:visible;visibility:visible;opacity:1;fill:#46a926;fill-opacity:1;fill-rule:nonzero;stroke:none;stroke-width:2;stroke-miterlimit:4;stroke-dasharray:none;stroke-opacity:1;marker:none;enable-background:accumulate"
         d="m 330.1929,133.99999 c -5.61538,0 -6.21958,0.57678 -6.19206,6.20352 v 7.79648 7.79648 c -0.0276,5.62673 0.57668,6.20351 6.19206,6.20351 h 11.615 c 5.6154,0 6.19208,-0.5767 6.19208,-6.20351 v -7.79648 -7.79648 c 0,-5.6268 -0.5767,-6.20352 -6.19208,-6.20352 z"
         id="path961-6"
         inkscape:connector-curvature="0"
         sodipodi:nodetypes="scccssscsss" />
    </clipPath>
    <clipPath
       clipPathUnits="userSpaceOnUse"
       id="clipPath959-7">
      <path
         style="color:#000000;display:inline;overflow:visible;visibility:visible;opacity:1;fill:#46a926;fill-opacity:1;fill-rule:nonzero;stroke:none;stroke-width:2;stroke-miterlimit:4;stroke-dasharray:none;stroke-opacity:1;marker:none;enable-background:accumulate"
         d="m 330.1929,133.99999 c -5.61538,0 -6.21958,0.57678 -6.19206,6.20352 v 7.79648 7.79648 c -0.0276,5.62673 0.57668,6.20351 6.19206,6.20351 h 11.615 c 5.6154,0 6.19208,-0.5767 6.19208,-6.20351 v -7.79648 -7.79648 c 0,-5.6268 -0.5767,-6.20352 -6.19208,-6.20352 z"
         id="path961-5"
         inkscape:connector-curvature="0"
         sodipodi:nodetypes="scccssscsss" />
    </clipPath>
    <clipPath
       clipPathUnits="userSpaceOnUse"
       id="clipPath959-35">
      <path
         style="color:#000000;display:inline;overflow:visible;visibility:visible;opacity:1;fill:#46a926;fill-opacity:1;fill-rule:nonzero;stroke:none;stroke-width:2;stroke-miterlimit:4;stroke-dasharray:none;stroke-opacity:1;marker:none;enable-background:accumulate"
         d="m 330.1929,133.99999 c -5.61538,0 -6.21958,0.57678 -6.19206,6.20352 v 7.79648 7.79648 c -0.0276,5.62673 0.57668,6.20351 6.19206,6.20351 h 11.615 c 5.6154,0 6.19208,-0.5767 6.19208,-6.20351 v -7.79648 -7.79648 c 0,-5.6268 -0.5767,-6.20352 -6.19208,-6.20352 z"
         id="path961-62"
         inkscape:connector-curvature="0"
         sodipodi:nodetypes="scccssscsss" />
    </clipPath>
    <clipPath
       clipPathUnits="userSpaceOnUse"
       id="clipPath959-9">
      <path
         style="color:#000000;display:inline;overflow:visible;visibility:visible;opacity:1;fill:#46a926;fill-opacity:1;fill-rule:nonzero;stroke:none;stroke-width:2;stroke-miterlimit:4;stroke-dasharray:none;stroke-opacity:1;marker:none;enable-background:accumulate"
         d="m 330.1929,133.99999 c -5.61538,0 -6.21958,0.57678 -6.19206,6.20352 v 7.79648 7.79648 c -0.0276,5.62673 0.57668,6.20351 6.19206,6.20351 h 11.615 c 5.6154,0 6.19208,-0.5767 6.19208,-6.20351 v -7.79648 -7.79648 c 0,-5.6268 -0.5767,-6.20352 -6.19208,-6.20352 z"
         id="path961-1"
         inkscape:connector-curvature="0"
         sodipodi:nodetypes="scccssscsss" />
    </clipPath>
    <clipPath
       clipPathUnits="userSpaceOnUse"
       id="clipPath959-2">
      <path
         style="color:#000000;display:inline;overflow:visible;visibility:visible;opacity:1;fill:#46a926;fill-opacity:1;fill-rule:nonzero;stroke:none;stroke-width:2;stroke-miterlimit:4;stroke-dasharray:none;stroke-opacity:1;marker:none;enable-background:accumulate"
         d="m 330.1929,133.99999 c -5.61538,0 -6.21958,0.57678 -6.19206,6.20352 v 7.79648 7.79648 c -0.0276,5.62673 0.57668,6.20351 6.19206,6.20351 h 11.615 c 5.6154,0 6.19208,-0.5767 6.19208,-6.20351 v -7.79648 -7.79648 c 0,-5.6268 -0.5767,-6.20352 -6.19208,-6.20352 z"
         id="path961-7"
         inkscape:connector-curvature="0"
         sodipodi:nodetypes="scccssscsss" />
    </clipPath>
    <clipPath
       clipPathUnits="userSpaceOnUse"
       id="clipPath1052">
      <path
         sodipodi:nodetypes="scccssscsss"
         inkscape:connector-curvature="0"
         id="path1054"
         d="m 333.1929,133.99999 c -5.61538,0 -6.21958,0.57678 -6.19206,6.20352 v 5.79648 5.79648 c -0.0276,5.62673 0.57668,6.20351 6.19206,6.20351 h 5.615 c 5.6154,0 6.19208,-0.5767 6.19208,-6.20351 v -5.79648 -5.79648 c 0,-5.6268 -0.5767,-6.20352 -6.19208,-6.20352 z"
         style="color:#000000;display:inline;overflow:visible;visibility:visible;opacity:1;fill:#46a926;fill-opacity:1;fill-rule:nonzero;stroke:none;stroke-width:2;stroke-miterlimit:4;stroke-dasharray:none;stroke-opacity:1;marker:none;enable-background:accumulate" />
    </clipPath>
    <linearGradient
       id="linearGradient4226"
       x1="529.65503"
       x2="-35.310001"
       y1="295.638"
       y2="295.638"
       gradientTransform="matrix(0,-0.11988932,-0.11988589,0,65.509395,290.16739)"
       gradientUnits="userSpaceOnUse">
      <stop
         style="stop-color:#999999"
         offset="0"
         id="stop7" />
      <stop
         style="stop-color:#b7b7b7"
         offset=".613"
         id="stop9" />
      <stop
         style="stop-color:#dbdbdb"
         offset="1"
         id="stop11" />
    </linearGradient>
    <clipPath
       clipPathUnits="userSpaceOnUse"
       id="clipPath994-1">
      <path
         style="color:#000000;display:inline;overflow:visible;visibility:visible;fill:#cdcdcd;fill-opacity:1;fill-rule:nonzero;stroke:none;stroke-width:2;stroke-miterlimit:4;stroke-dasharray:none;stroke-opacity:1;marker:none;enable-background:accumulate"
         d="m 335.73108,62 c -8.82418,0 -9.77365,0.90635 -9.7304,9.74838 V 84 96.25162 c -0.0433,8.84203 0.90622,9.74838 9.7304,9.74838 h 16.53919 c 8.82418,0 9.7304,-0.90625 9.7304,-9.74838 V 84 71.74838 C 362.00067,62.90625 361.09445,62 352.27027,62 Z"
         id="path996-8"
         inkscape:connector-curvature="0"
         sodipodi:nodetypes="scccssscsss" />
    </clipPath>
    <clipPath
       clipPathUnits="userSpaceOnUse"
       id="clipPath994-1-3">
      <path
         style="color:#000000;display:inline;overflow:visible;visibility:visible;fill:#cdcdcd;fill-opacity:1;fill-rule:nonzero;stroke:none;stroke-width:2;stroke-miterlimit:4;stroke-dasharray:none;stroke-opacity:1;marker:none;enable-background:accumulate"
         d="m 335.73108,62 c -8.82418,0 -9.77365,0.90635 -9.7304,9.74838 V 84 96.25162 c -0.0433,8.84203 0.90622,9.74838 9.7304,9.74838 h 16.53919 c 8.82418,0 9.7304,-0.90625 9.7304,-9.74838 V 84 71.74838 C 362.00067,62.90625 361.09445,62 352.27027,62 Z"
         id="path996-8-6"
         inkscape:connector-curvature="0"
         sodipodi:nodetypes="scccssscsss" />
    </clipPath>
    <linearGradient
       inkscape:collect="always"
       xlink:href="#linearGradient927"
       id="linearGradient1004-8"
       x1="344"
       y1="65.144272"
       x2="344"
       y2="102.85715"
       gradientUnits="userSpaceOnUse"
       gradientTransform="matrix(0,-1.04758,0.95458104,0,263.81519,444.36752)" />
    <linearGradient
       inkscape:collect="always"
       id="linearGradient927">
      <stop
         style="stop-color:#ffffff;stop-opacity:1;"
         offset="0"
         id="stop923" />
      <stop
         id="stop933"
         offset="0.125"
         style="stop-color:#ffffff;stop-opacity:0.09803922" />
      <stop
         id="stop931"
         offset="0.92500001"
         style="stop-color:#ffffff;stop-opacity:0.09803922" />
      <stop
         style="stop-color:#ffffff;stop-opacity:0.49803922"
         offset="1"
         id="stop925" />
    </linearGradient>
    <clipPath
       clipPathUnits="userSpaceOnUse"
       id="clipPath994-1-36">
      <path
         style="color:#000000;display:inline;overflow:visible;visibility:visible;fill:#cdcdcd;fill-opacity:1;fill-rule:nonzero;stroke:none;stroke-width:2;stroke-miterlimit:4;stroke-dasharray:none;stroke-opacity:1;marker:none;enable-background:accumulate"
         d="m 335.73108,62 c -8.82418,0 -9.77365,0.90635 -9.7304,9.74838 V 84 96.25162 c -0.0433,8.84203 0.90622,9.74838 9.7304,9.74838 h 16.53919 c 8.82418,0 9.7304,-0.90625 9.7304,-9.74838 V 84 71.74838 C 362.00067,62.90625 361.09445,62 352.27027,62 Z"
         id="path996-8-7"
         inkscape:connector-curvature="0"
         sodipodi:nodetypes="scccssscsss" />
    </clipPath>
    <linearGradient
       inkscape:collect="always"
       xlink:href="#linearGradient1061"
       id="linearGradient4882"
       x1="319.2178"
       y1="170.97945"
       x2="355.70792"
       y2="121.71233"
       gradientUnits="userSpaceOnUse"
       gradientTransform="rotate(90,242.25049,-78.249999)" />
    <linearGradient
       inkscape:collect="always"
       id="linearGradient1061">
      <stop
         style="stop-color:#80a3fa;stop-opacity:1;"
         offset="0"
         id="stop1057" />
      <stop
         style="stop-color:#a2bcfe;stop-opacity:1"
         offset="1"
         id="stop1059" />
    </linearGradient>
  </defs>
  <sodipodi:namedview
     pagecolor="#ffffff"
     bordercolor="#666666"
     borderopacity="1"
     objecttolerance="10"
     gridtolerance="10"
     guidetolerance="10"
     inkscape:pageopacity="0"
     inkscape:pageshadow="2"
     inkscape:window-width="1920"
     inkscape:window-height="1016"
     id="namedview10"
     showgrid="false"
     inkscape:zoom="26.21875"
     inkscape:cx="16"
     inkscape:cy="16"
     inkscape:window-x="0"
     inkscape:window-y="27"
     inkscape:window-maximized="1"
     inkscape:current-layer="svg8" />
  <path
     style="color:#000000;font-style:normal;font-variant:normal;font-weight:normal;font-stretch:normal;font-size:medium;line-height:normal;font-family:sans-serif;font-variant-ligatures:normal;font-variant-position:normal;font-variant-caps:normal;font-variant-numeric:normal;font-variant-alternates:normal;font-feature-settings:normal;text-indent:0;text-align:start;text-decoration:none;text-decoration-line:none;text-decoration-style:solid;text-decoration-color:#000000;letter-spacing:normal;word-spacing:normal;text-transform:none;writing-mode:lr-tb;direction:ltr;text-orientation:mixed;dominant-baseline:auto;baseline-shift:baseline;text-anchor:start;white-space:normal;shape-padding:0;clip-rule:nonzero;display:inline;overflow:visible;visibility:visible;opacity:0.1;isolation:auto;mix-blend-mode:normal;color-interpolation:sRGB;color-interpolation-filters:linearRGB;solid-color:#000000;solid-opacity:1;vector-effect:none;fill:#000000;fill-opacity:1;fill-rule:nonzero;stroke:none;stroke-width:2;stroke-linecap:butt;stroke-linejoin:miter;stroke-miterlimit:4;stroke-dasharray:none;stroke-dashoffset:0;stroke-opacity:1;marker:none;color-rendering:auto;image-rendering:auto;shape-rendering:auto;text-rendering:auto;enable-background:accumulate"
     d="m 31.000001,10.69336 c 0,-1.4209597 -0.0308,-2.5488297 -0.19141,-3.5058597 -0.16064,-0.95703 -0.4726,-1.79146 -1.09179,-2.41211 -0.61919,-0.62065 -1.45612,-0.93647 -2.41407,-1.0957 -0.95795,-0.15924 -2.08705,-0.18666 -3.51171,-0.17969 H 16 8.20312 c -1.42131,-0.007 -2.5495,0.0207 -3.50585,0.17969 -0.95796,0.15923 -1.79488,0.47505 -2.41407,1.0957 -0.61919,0.62065 -0.93115,1.45508 -1.09179,2.41211 C 1.03076,8.1445303 1,9.2724003 1,10.69336 v 11.61523 c 0,1.42097 0.0307,2.54669 0.19141,3.50196 0.16075,0.95527 0.47425,1.78779 1.09375,2.40625 0.6195,0.61845 1.45363,0.93134 2.41015,1.09179 C 5.65184,29.46905 6.77934,29.5 8.20312,29.5 H 16 23.796881 c 1.42378,0 2.55128,-0.031 3.50781,-0.19141 0.95653,-0.16045 1.79065,-0.47334 2.41015,-1.09179 0.61951,-0.61846 0.933,-1.45098 1.09375,-2.40625 0.16076,-0.95527 0.19141,-2.08099 0.19141,-3.50196 z"
     id="path999"
     inkscape:connector-curvature="0"
     sodipodi:nodetypes="scscccccscsscccscscscss" />
  <path
     style="color:#000000;display:inline;overflow:visible;visibility:visible;fill:url(#linearGradient4882);fill-opacity:1;fill-rule:nonzero;stroke:none;stroke-width:1;marker:none;enable-background:accumulate"
     d="m 30.500501,9.57459 c 0,-5.5617497 -0.58409,-6.6036997 -6.28227,-6.5744697 H 16.00058 7.78277 C 2.08459,2.9708203 1.5005,4.0128403 1.5005,9.57459 v 11.85044 c 0,5.56037 0.58403,6.57447 6.28227,6.57447 h 8.21781 8.217651 c 5.69824,0 6.28227,-1.0141 6.28227,-6.57447 z"
     id="path964-7"
     inkscape:connector-curvature="0"
     sodipodi:nodetypes="scccssscsss" />
  <path
     sodipodi:nodetypes="ccsccscsccc"
     inkscape:connector-curvature="0"
     id="path4688"
     d="m 7.52113,5.5000103 c -0.9829,-0.0124 -1.64338,0.20847 -1.98234,0.61522 -0.35591,0.42369 -0.5383,1.11884 -0.5383,2.08487 V 25.49951 H 27.000491 V 8.2001003 c 0,-0.96603 -0.18239,-1.66118 -0.5383,-2.08487 -0.33895,-0.40675 -1.00958,-0.61522 -1.98234,-0.61522 H 22.839301 11.43454 Z"
     style="font-style:normal;font-variant:normal;font-weight:normal;font-stretch:normal;font-size:15px;line-height:125%;font-family:Ubuntu;-inkscape-font-specification:Ubuntu;text-align:center;letter-spacing:0px;word-spacing:0px;writing-mode:lr-tb;text-anchor:middle;display:inline;fill:#faf8f6;fill-opacity:1;stroke:none;stroke-width:1;enable-background:new" />
  <path
     inkscape:connector-curvature="0"
     style="display:inline;opacity:1;fill:#a2bcfe;fill-opacity:1;fill-rule:evenodd;stroke:none;stroke-width:0.99999982px;stroke-linecap:butt;stroke-linejoin:miter;stroke-opacity:1;enable-background:new"
     d="m 1.50049,12.48584 v 8.93945 c 0,5.56037 0.58496,6.57422 6.2832,6.57422 h 8.2168 8.216801 c 5.69824,0 6.2832,-1.01385 6.2832,-6.57422 V 12.48584 L 16.00049,19.28271 Z"
     id="path4617" />
  <path
     inkscape:connector-curvature="0"
     style="display:inline;opacity:0.2;fill:#ffffff;fill-opacity:1;fill-rule:evenodd;stroke:none;stroke-width:0.99999994px;stroke-linecap:butt;stroke-linejoin:miter;stroke-opacity:1;enable-background:new"
     d="M 30.500491,12.48389 1.93994,25.81396 c 0.64348,1.76198 2.19254,2.18555 5.84375,2.18555 h 8.2168 8.216801 c 5.69824,0 6.2832,-1.01385 6.2832,-6.57422 z"
     id="path4619" />
  <path
     sodipodi:nodetypes="cccccccccc"
     inkscape:connector-curvature="0"
     id="path4713"
     d="M 9.00049,9.4995103 V 10.49951 H 23.000491 V 9.4995103 Z m 0,1.9999997 v 1 h 7 v -1 z"
     style="color:#000000;display:inline;overflow:visible;visibility:visible;opacity:0.5;fill:#80a3fa;fill-opacity:0.99607843;fill-rule:nonzero;stroke:none;stroke-width:4.50000048;marker:none;enable-background:accumulate" />
  <path
     inkscape:connector-curvature="0"
     style="color:#000000;display:inline;overflow:visible;visibility:visible;opacity:1;fill:#87a6f3;fill-opacity:1;fill-rule:nonzero;stroke:none;stroke-width:63.99998856;stroke-linecap:butt;stroke-linejoin:miter;stroke-miterlimit:4;stroke-dasharray:none;stroke-dashoffset:0;stroke-opacity:1;marker:none;enable-background:accumulate"
     d="m 1.50049,20.83935 v 0.58594 c 0,2.1868 0.0946,3.6629 0.55078,4.6582 l 0.94922,0.41602 v -5 z"
     id="path5499" />
  <path
     inkscape:connector-curvature="0"
     style="color:#000000;display:inline;overflow:visible;visibility:visible;opacity:1;fill:#87a6f3;fill-opacity:1;fill-rule:nonzero;stroke:none;stroke-width:63.99998856;stroke-linecap:butt;stroke-linejoin:miter;stroke-miterlimit:4;stroke-dasharray:none;stroke-dashoffset:0;stroke-opacity:1;marker:none;enable-background:accumulate"
     d="m 30.500491,20.83935 -1.5,0.66016 v 5 l 0.94922,-0.41602 c 0.45623,-0.9953 0.55078,-2.4714 0.55078,-4.6582 z"
     id="path4814" />
  <path
     sodipodi:nodetypes="ccccc"
     inkscape:connector-curvature="0"
     id="path4816"
     d="m 1.00049,13.62061 2,0.8789 v 5 l -2,-0.8789 z"
     style="color:#000000;display:inline;overflow:visible;visibility:visible;opacity:1;fill:#e93549;fill-opacity:1;fill-rule:nonzero;stroke:none;stroke-width:63.99998856;stroke-linecap:butt;stroke-linejoin:miter;stroke-miterlimit:4;stroke-dasharray:none;stroke-dashoffset:0;stroke-opacity:1;marker:none;enable-background:accumulate" />
  <path
     style="color:#000000;display:inline;overflow:visible;visibility:visible;opacity:1;fill:#e93549;fill-opacity:1;fill-rule:nonzero;stroke:none;stroke-width:63.99998856;stroke-linecap:butt;stroke-linejoin:miter;stroke-miterlimit:4;stroke-dasharray:none;stroke-dashoffset:0;stroke-opacity:1;marker:none;enable-background:accumulate"
     d="m 31.000491,13.62061 -2,0.8789 v 5 l 2,-0.8789 z"
     id="path4820"
     inkscape:connector-curvature="0"
     sodipodi:nodetypes="ccccc" />
  <path
     style="color:#000000;display:inline;overflow:visible;visibility:visible;opacity:0.4;fill:none;fill-opacity:1;fill-rule:nonzero;stroke:#000000;stroke-width:1;stroke-miterlimit:4;stroke-dasharray:none;stroke-opacity:1;marker:none;enable-background:accumulate"
     d="m 30.500501,9.57459 c 0,-5.5617497 -0.58409,-6.6036997 -6.28227,-6.5744697 H 16.00058 7.78277 C 2.08459,2.9708203 1.5005,4.0128403 1.5005,9.57459 v 11.85044 c 0,5.56037 0.58403,6.57447 6.28227,6.57447 h 8.21781 8.217651 c 5.69824,0 6.28227,-1.0141 6.28227,-6.57447 z"
     id="path958-1"
     inkscape:connector-curvature="0"
     sodipodi:nodetypes="scccssscsss" />
  <path
     transform="matrix(0,0.66664182,-0.63636364,0,69.455041,-213.82528)"
     sodipodi:nodetypes="scccssscsss"
     inkscape:connector-curvature="0"
     id="path990-8"
     d="m 335.73108,62 c -8.82418,0 -9.77365,0.90635 -9.7304,9.74838 V 84 96.25162 c -0.0433,8.84203 0.90622,9.74838 9.7304,9.74838 h 16.53919 c 8.82418,0 9.7304,-0.90625 9.7304,-9.74838 V 84 71.74838 C 362.00067,62.90625 361.09445,62 352.27027,62 Z"
     style="color:#000000;display:inline;overflow:visible;visibility:visible;opacity:0.7;fill:none;fill-opacity:1;fill-rule:nonzero;stroke:url(#linearGradient1004-8);stroke-width:3.07065511;stroke-miterlimit:4;stroke-dasharray:none;stroke-opacity:1;marker:none;enable-background:accumulate"
     clip-path="url(#clipPath994-1-36)" />
</svg>
